X: 932
T: Wait Awhile.
T: Lady Wemys' Jig.
B:O'Neill's 932
N:"collected by J. O'Neill."
Z:Transcribed by Tom Keays (htkeays@mailbox.syr.edu)
Z:abc 1.6
M:6/8
R:Jig
L:1/8
K:Dlyd
B | cde eca | cAc e2 d | cde ef=g | BGB d2 B |
cde efg | agf edc | dfd cac | BGB d2 :|
|| B | acA ecA | acA efg | acA ecA | BGB d2 B |
acA ecA | acA efg | agf edc | BGB d2 :|


